X:1
T:Cotillion Toulonoise. TWC.252
T:Cotillion Toulonoise. TWC.252
T:French
C:French
L:1/8
Q:1/4=100
M:6/8
K:C
V:1 treble 
V:1
 e3 efd | dcc cde | d2 d dgf | ede cde | e3 efd | dcc ceg | dfg Bdf | ceg c2 || g/f/ | g3 efd | %10
 g3 cde | d2 d dgf | ede c2 g | g3 efd | g3 G3 | Afd BGB | c2 c c2 || g | g2 g f2 g | e2 g d2 g | %20
 cBc ABc | BdB G2 g | g2 g f2 g | ^fga g2 e | ded cBc | B3 G3!D.C.! |] %26

